!!! OTL: Berkowitz363
!!! Chapter: 1
!!! Section: III
!!! Page: 89
!!! Mode: 
!!! Encoder: DJB
**kern
*staff1
*I"Piano
=1-
*clefC4
*k[f#c#]
*D:
*M2/4
8d\L
16c#\L
16d\JJ
16e\LL
16f#\J
8g\J
=2
16a\LL
16b\
16a\
16g\JJ
8f#\L
8a\J
=3
8dd\L
16cc#\L
16dd\JJ
16cc#\LL
16b\
16a\
16g\JJ
=4
8f#\L
16e\L
16f#\JJ
16e\LL
16A\
16B\
16c#\JJ
=5
16d\LL
16f#\J
8a\J
16b\LL
16a\
16g\
16f#\JJ
=6
!!linebreak:original
8.d\L
16f#\Jk
8A\L
16B\L
16c#\JJ
=7
16e\LL
16d\
16e\
16f#\JJ
16g\LL
16e\
16c#\
16f#\JJ
=8
16e\LL
16A\
16B\
16c#\JJ
4d\
==
*-
